X: 954
T: All Hands Upon Deck
R: reel
M: 4/4
K: Dmajor
|:d2fg a2fd|ecBc Aeef|defg ^gafd|1 edcB Addc:|2 edcB Add2||
F2EF DddF|G2FG EeeG|F2EF Dddf|ebag fdd2|
F2EF DddF|G2FG Eeeg|fagf gbag|(3fga ea fddc||

